img/insta-icon.svg

<svg width="20" height="20" viewBox="0 0 20 20" fill="none" xmlns="http://www.w3.org/2000/svg">
<path fill-rule="evenodd" clip-rule="evenodd" d="M10 0C7.28417 0 6.94417 0.0116667 5.8775 0.06C2.24583 0.226667 0.2275 2.24167 0.0608333 5.87667C0.0116667 6.94417 0 7.28417 0 10C0 12.7158 0.0116667 13.0567 0.06 14.1233C0.226667 17.755 2.24167 19.7733 5.87667 19.94C6.94417 19.9883 7.28417 20 10 20C12.7158 20 13.0567 19.9883 14.1233 19.94C17.7517 19.7733 19.775 17.7583 19.9392 14.1233C19.9883 13.0567 20 12.7158 20 10C20 7.28417 19.9883 6.94417 19.94 5.8775C19.7767 2.24917 17.7592 0.2275 14.1242 0.0608333C13.0567 0.0116667 12.7158 0 10 0ZM10 1.8025C12.67 1.8025 12.9867 1.8125 14.0417 1.86083C16.7517 1.98417 18.0175 3.27 18.1408 5.96C18.1892 7.01417 18.1983 7.33083 18.1983 10.0008C18.1983 12.6717 18.1883 12.9875 18.1408 14.0417C18.0167 16.7292 16.7542 18.0175 14.0417 18.1408C12.9867 18.1892 12.6717 18.1992 10 18.1992C7.33 18.1992 7.01333 18.1892 5.95917 18.1408C3.2425 18.0167 1.98333 16.725 1.86 14.0408C1.81167 12.9867 1.80167 12.6708 1.80167 10C1.80167 7.33 1.8125 7.01417 1.86 5.95917C1.98417 3.27 3.24667 1.98333 5.95917 1.86C7.01417 1.8125 7.33 1.8025 10 1.8025ZM4.865 10C4.865 7.16417 7.16417 4.865 10 4.865C12.8358 4.865 15.135 7.16417 15.135 10C15.135 12.8367 12.8358 15.1358 10 15.1358C7.16417 15.1358 4.865 12.8358 4.865 10ZM10 13.3333C8.15917 13.3333 6.66667 11.8417 6.66667 10C6.66667 8.15917 8.15917 6.66667 10 6.66667C11.8408 6.66667 13.3333 8.15917 13.3333 10C13.3333 11.8417 11.8408 13.3333 10 13.3333ZM14.1375 4.6625C14.1375 4 14.675 3.4625 15.3383 3.4625C16.0008 3.4625 16.5375 4 16.5375 4.6625C16.5375 5.325 16.0008 5.8625 15.3383 5.8625C14.675 5.8625 14.1375 5.325 14.1375 4.6625Z" fill="#151515"/>
</svg>

<svg xmlns="http://www.w3.org/2000/svg" width="20" height="20" fill="none" viewBox="0 0 20 20"><path fill="#151515" fill-rule="evenodd" d="M10 0C7.284 0 6.944.012 5.878.06 2.246.227.228 2.242.06 5.877.01 6.944 0 7.284 0 10s.012 3.057.06 4.123c.167 3.632 2.182 5.65 5.817 5.817 1.067.048 1.407.06 4.123.06s3.057-.012 4.123-.06c3.629-.167 5.652-2.182 5.816-5.817.05-1.066.061-1.407.061-4.123s-.012-3.056-.06-4.122C19.777 2.249 17.76.228 14.124.06 13.057.01 12.716 0 10 0m0 1.803c2.67 0 2.987.01 4.042.058 2.71.123 3.975 1.409 4.099 4.099.048 1.054.057 1.37.057 4.04 0 2.672-.01 2.988-.057 4.042-.124 2.687-1.387 3.975-4.1 4.099-1.054.048-1.37.058-4.041.058-2.67 0-2.987-.01-4.04-.058-2.717-.124-3.977-1.416-4.1-4.1-.048-1.054-.058-1.37-.058-4.041 0-2.67.01-2.986.058-4.04.124-2.69 1.387-3.977 4.1-4.1 1.054-.048 1.37-.058 4.04-.058M4.865 10a5.135 5.135 0 1 1 10.27 0 5.135 5.135 0 0 1-10.27 0M10 13.333a3.333 3.333 0 1 1 0-6.665 3.333 3.333 0 0 1 0 6.665m4.137-8.67a1.2 1.2 0 1 1 2.401 0 1.2 1.2 0 0 1-2.4 0" clip-rule="evenodd"/></svg>
